X: 508
U:~=!turn!
M:C
L:1/8
K:D phrygian
f>B e/d/c/B/ f<B {Bc}d2 | f<Bd>f g>ce>g | f<Bd>f B>fd>f | e>gd>f g<ce<g |
!mf!f>B e/d/c/B/ f<B {Bc}d2 | f<Bd>f g/f/e/d/ c/B/A/G/ | F<B G/F/E/D/ F<B,D>F | (3EGE (3DFD G<CEG |]


